icons/groovy/groovy-plain.svg

<svg viewBox="0 0 128 128" xmlns="http://www.w3.org/2000/svg"><path d="M57.27 43.147c-6.273 10.408-6.633 10.955-7.504 11.382-.78.383-.97.407-1.287.164-1.296-.996-3.031-.705-4.248.712l-.676.787-.143-.843c-.223-1.318-.299-1.505-.842-2.092-.506-.545-.508-.564-.214-2.21.364-2.04.385-3.53.071-5.01-.613-2.894-2.139-4.224-4.845-4.224-2.341 0-5.13 1.864-8.696 5.81-2.148 2.378-5.401 6.847-6.1 8.382l-.272.597-11.193-.141c-6.967-.088-11.117-.066-10.99.059.111.11 4.892 1.949 10.624 4.087l10.423 3.887.389.909c.463 1.081 1.665 2.462 2.696 3.099l.742.459-.866.388c-.644.288-.984.63-1.325 1.331-.673 1.385-.451 2.176 1.102 3.925.698.787 1.662 2.185 2.141 3.107.58 1.114 1.099 1.815 1.548 2.088.724.442 2.059.544 2.691.206.713-.382 4.905-1.438 4.762-1.201-.077.129-2.522 3.971-5.433 8.537-2.911 4.566-5.247 8.347-5.192 8.403.056.055 8.933-3.328 19.727-7.52l19.626-7.62L83.553 88.2c10.762 4.178 19.648 7.569 19.747 7.536.098-.033-1.301-2.376-3.109-5.207l-3.288-5.147 1.135-.228c2.552-.512 5.431-2.527 6.98-4.884 2.26-3.438 2.587-7.399 1.084-13.136-.302-1.151-.499-2.142-.438-2.202.06-.06 4.99-1.933 10.956-4.161 5.966-2.229 10.931-4.135 11.034-4.236.104-.102-5.137-.129-11.888-.059-10.269.106-12.088.08-12.169-.176a12.474 12.474 0 01-.215-.853c-.141-.65-1.085-1.654-1.816-1.933-.282-.108-1.21-.21-2.062-.227-1.377-.029-1.631.031-2.298.54-.413.315-.811.765-.886 1-.181.571-.402.537-.751-.114-.812-1.518-3.259-1.842-4.504-.596l-.629.628-1.245-.617c-1.536-.761-3.42-.983-4.504-.53-.53.221-.906.255-1.279.114-.888-.337-2.307-.065-2.969.569l-.595.57-.976-.659c-.537-.362-1.246-.753-1.576-.869-.496-.174-1.676-2.002-6.881-10.66-3.455-5.747-6.342-10.45-6.416-10.45-.074 0-3.1 4.92-6.725 10.934m-18.682 1.788c1.109.776 1.382 2.983.769 6.212-.671 3.539-1.702 5.813-3.553 7.838-1.213 1.327-2.574 2.061-3.858 2.081-2.946.044-3.694-2.859-1.755-6.813.706-1.438 2.499-3.906 2.839-3.906.167 0 .677 2.003.677 2.66 0 .224-.403 1.073-.895 1.888-.717 1.187-.894 1.681-.894 2.494 0 3.113 2.902 2.729 4.473-.593 1.586-3.353 2.474-9.821 1.496-10.905-.522-.579-.832-.566-2.253.096-2.246 1.045-6.923 6.488-8.534 9.931-1.583 3.384-1.245 6.914.844 8.801 2.073 1.872 5.366 1.519 7.788-.835 1.85-1.799 3.249-4.447 3.827-7.244.348-1.68.86-1.854 1.037-.352.069.58.605 2.529 1.192 4.33 1.451 4.455 1.732 5.652 1.73 7.359-.003 1.889-.619 3.24-2.111 4.629-1.427 1.328-3.429 2.232-7.167 3.237-1.643.441-3.359.933-3.813 1.093-1.106.389-1.178.376-1.416-.248-.352-.926-1.71-2.943-2.608-3.872l-.86-.891.867-.233c2.86-.77 7.084-2.305 9.12-3.315 2.446-1.212 4.011-2.464 4.718-3.773.561-1.039.526-3.601-.067-4.871l-.447-.96-.249.64c-1.385 3.563-4.003 6.201-7.143 7.198-1.894.602-4.369.435-5.898-.396-2.676-1.457-3.167-4.382-1.37-8.167 2.085-4.395 8.022-11.31 10.979-12.787 1.541-.77 1.846-.81 2.535-.326M76.54 56.23c2.405 1.199 3.94 3.79 3.97 6.703.023 2.183-.502 3.639-1.768 4.905-1.196 1.196-2.454 1.619-4.202 1.414-2.996-.352-4.711-2.078-4.944-4.974-.24-2.992 1.276-7.128 2.998-8.178.997-.608 2.57-.556 3.946.13m-10.644.499c.364.259.951 1.082 1.348 1.887.66 1.341.703 1.564.703 3.676 0 2.11-.044 2.337-.7 3.671-1.305 2.652-3.664 4.17-6.158 3.963-1.429-.118-2.156-.616-2.814-1.929-.925-1.843-.586-5.413.797-8.384.669-1.438 2.511-3.436 3.269-3.545 1.007-.146 2.921.21 3.555.661m34.495-.459c.127.086.641 2.029 1.142 4.317.501 2.288 1.255 5.456 1.677 7.04.663 2.49.768 3.212.776 5.333.012 3.058-.363 4.391-1.75 6.233-2.407 3.196-5.96 4.412-11.737 4.015-1.324-.091-2.474-.231-2.554-.312-.08-.08.164-.387.542-.683 1.093-.856 1.787-2.241 1.914-3.821.061-.758.152-1.379.203-1.379.051 0 1.069.25 2.264.554 4.753 1.213 7.851.145 9.344-3.22.605-1.362.733-3.696.329-5.974l-.302-1.706-.03 1.28c-.016.704-.165 1.917-.33 2.697-.566 2.669-1.612 4.023-3.109 4.023-1.706 0-2.664-1.871-3.303-6.451-1.025-7.345-1.366-8.804-2.365-10.122-.598-.788-.617-.913-.22-1.456.275-.376.33-.332.825.653.292.581.938 2.303 1.435 3.828 1.344 4.122 1.929 5.129 3.276 5.641.736.28 1.854-.172 2.367-.954 1.145-1.748.933-4.101-.659-7.306a257.362 257.362 0 01-1.102-2.233c-.094-.206 1.063-.203 1.367.003m-28.051.662c-.669.94-.895 1.708-.902 3.063-.016 3.327 3.216 5.348 6.296 3.937 2.416-1.105 2.693-2.965.811-5.44-1.151-1.514-3.444-2.585-4.197-1.96-.55.456-.358 1.016.631 1.842 1.139.953 1.313 1.319.811 1.7-1.219.925-3.257-.351-3.257-2.04 0-.489.1-1.074.221-1.301.33-.617.082-.498-.414.199m15.435-.311c2.714 1.134 4.77 5.84 4.535 10.381-.124 2.407-.676 3.92-1.784 4.893-1.496 1.313-3.662.444-4.89-1.962-.569-1.116-1.076-2.882-1.915-6.678-.634-2.868-1.195-4.517-1.799-5.285-.37-.469-.378-.561-.086-.977.177-.253.404-.46.504-.46.327 0 1.038 1.771 1.587 3.957.622 2.477.971 3.384 1.619 4.208 1.021 1.297 3.093 1.66 4.109.718 1.286-1.192 1.601-2.947.905-5.042-.621-1.87-2.84-3.752-3.567-3.025-.164.163-.129.383.122.766.193.295.352.728.352.961 0 .597-.448 1.511-.741 1.511-.302 0-1.067-.698-1.514-1.379-.402-.614-.456-2.13-.091-2.569.336-.405 1.705-.414 2.654-.018m-24.628.552c-.616.616-.543.892.559 2.118.975 1.084.982 1.102.587 1.541-.22.244-.612.525-.872.624-.597.229-1.706-.142-1.986-.664-.307-.576-.253-2.245.101-3.092.447-1.07.002-.909-.746.27-1.182 1.863-1.369 4.031-.494 5.717 1.345 2.592 4.606 2.303 6.705-.594.983-1.357.782-3.022-.579-4.806-1.096-1.437-2.481-1.908-3.275-1.114M47.202 58.78c.263.803.591 1.496.73 1.539.329.104 1.765-1.2 2.519-2.289.326-.471.674-.857.773-.857.098 0 .329.292.514.649.185.358.592.747.905.866.515.196.65.129 1.429-.703l.861-.918.066.679c.125 1.288-1.479 3.458-2.902 3.928-.653.216-.862.172-2.008-.419-.966-.498-1.374-.609-1.667-.453-.572.307-.684 1.227-.319 2.622.412 1.574.843 2.425 1.669 3.296.813.857 1.703.909 3.244.191l1.07-.498.011 2.413.01 2.413-.818.327c-1.031.413-2.359.419-3.139.016-.894-.462-1.441-1.869-2.055-5.284-.711-3.954-1.229-5.526-2.137-6.489-.398-.422-.661-.876-.583-1.008.339-.578 1.198-1.632 1.27-1.56.044.043.295.736.557 1.539M93.653 73.6c0 .117-.149.213-.332.213-.183 0-.274-.096-.201-.213.073-.117.222-.213.333-.213.11 0 .2.096.2.213" fill-rule="evenodd"/></svg>

<svg width="128" height="128" version="1.1" viewBox="0 0 128 128" xml:space="preserve" xmlns="http://www.w3.org/2000/svg"><path d="M57.270 43.147 C 50.997 53.555,50.637 54.102,49.766 54.529 C 48.986 54.912,48.796 54.936,48.479 54.693 C 47.183 53.697,45.448 53.988,44.231 55.405 L 43.555 56.192 43.412 55.349 C 43.189 54.031,43.113 53.844,42.570 53.257 C 42.064 52.712,42.062 52.693,42.356 51.047 C 42.720 49.007,42.741 47.517,42.427 46.037 C 41.814 43.143,40.288 41.813,37.582 41.813 C 35.241 41.813,32.452 43.677,28.886 47.623 C 26.738 50.001,23.485 54.470,22.786 56.005 L 22.514 56.602 11.321 56.461 C 4.354 56.373,0.204 56.395,0.331 56.520 C 0.442 56.630,5.223 58.469,10.955 60.607 L 21.378 64.494 21.767 65.403 C 22.230 66.484,23.432 67.865,24.463 68.502 L 25.205 68.961 24.339 69.349 C 23.695 69.637,23.355 69.979,23.014 70.680 C 22.341 72.065,22.563 72.856,24.116 74.605 C 24.814 75.392,25.778 76.790,26.257 77.712 C 26.837 78.826,27.356 79.527,27.805 79.800 C 28.529 80.242,29.864 80.344,30.496 80.006 C 31.209 79.624,35.401 78.568,35.258 78.805 C 35.181 78.934,32.736 82.776,29.825 87.342 C 26.914 91.908,24.578 95.689,24.633 95.745 C 24.689 95.800,33.566 92.417,44.360 88.225 L 63.986 80.605 83.553 88.200 C 94.315 92.378,103.201 95.769,103.300 95.736 C 103.398 95.703,101.999 93.360,100.191 90.529 L 96.903 85.382 98.038 85.154 C 100.590 84.642,103.469 82.627,105.018 80.270 C 107.278 76.832,107.605 72.871,106.102 67.134 C 105.800 65.983,105.603 64.992,105.664 64.932 C 105.724 64.872,110.654 62.999,116.620 60.771 C 122.586 58.542,127.551 56.636,127.654 56.535 C 127.758 56.433,122.517 56.406,115.766 56.476 C 105.497 56.582,103.678 56.556,103.597 56.300 C 103.545 56.135,103.448 55.751,103.382 55.447 C 103.241 54.797,102.297 53.793,101.566 53.514 C 101.284 53.406,100.356 53.304,99.504 53.287 C 98.127 53.258,97.873 53.318,97.206 53.827 C 96.793 54.142,96.395 54.592,96.320 54.827 C 96.139 55.398,95.918 55.364,95.569 54.713 C 94.757 53.195,92.310 52.871,91.065 54.117 L 90.436 54.745 89.191 54.128 C 87.655 53.367,85.771 53.145,84.687 53.598 C 84.157 53.819,83.781 53.853,83.408 53.712 C 82.520 53.375,81.101 53.647,80.439 54.281 L 79.844 54.851 78.868 54.192 C 78.331 53.830,77.622 53.439,77.292 53.323 C 76.796 53.149,75.616 51.321,70.411 42.663 C 66.956 36.916,64.069 32.213,63.995 32.213 C 63.921 32.213,60.895 37.133,57.270 43.147 M38.588 44.935 C 39.697 45.711,39.970 47.918,39.357 51.147 C 38.686 54.686,37.655 56.960,35.804 58.985 C 34.591 60.312,33.230 61.046,31.946 61.066 C 29.000 61.110,28.252 58.207,30.191 54.253 C 30.897 52.815,32.690 50.347,33.030 50.347 C 33.197 50.347,33.707 52.350,33.707 53.007 C 33.707 53.231,33.304 54.080,32.812 54.895 C 32.095 56.082,31.918 56.576,31.918 57.389 C 31.918 60.502,34.820 60.118,36.391 56.796 C 37.977 53.443,38.865 46.975,37.887 45.891 C 37.365 45.312,37.055 45.325,35.634 45.987 C 33.388 47.032,28.711 52.475,27.100 55.918 C 25.517 59.302,25.855 62.832,27.944 64.719 C 30.017 66.591,33.310 66.238,35.732 63.884 C 37.582 62.085,38.981 59.437,39.559 56.640 C 39.907 54.960,40.419 54.786,40.596 56.288 C 40.665 56.868,41.201 58.817,41.788 60.618 C 43.239 65.073,43.520 66.270,43.518 67.977 C 43.515 69.866,42.899 71.217,41.407 72.606 C 39.980 73.934,37.978 74.838,34.240 75.843 C 32.597 76.284,30.881 76.776,30.427 76.936 C 29.321 77.325,29.249 77.312,29.011 76.688 C 28.659 75.762,27.301 73.745,26.403 72.816 L 25.543 71.925 26.410 71.692 C 29.270 70.922,33.494 69.387,35.530 68.377 C 37.976 67.165,39.541 65.913,40.248 64.604 C 40.809 63.565,40.774 61.003,40.181 59.733 L 39.734 58.773 39.485 59.413 C 38.100 62.976,35.482 65.614,32.342 66.611 C 30.448 67.213,27.973 67.046,26.444 66.215 C 23.768 64.758,23.277 61.833,25.074 58.048 C 27.159 53.653,33.096 46.738,36.053 45.261 C 37.594 44.491,37.899 44.451,38.588 44.935 M76.540 56.230 C 78.945 57.429,80.480 60.020,80.510 62.933 C 80.533 65.116,80.008 66.572,78.742 67.838 C 77.546 69.034,76.288 69.457,74.540 69.252 C 71.544 68.900,69.829 67.174,69.596 64.278 C 69.356 61.286,70.872 57.150,72.594 56.100 C 73.591 55.492,75.164 55.544,76.540 56.230 M65.896 56.729 C 66.260 56.988,66.847 57.811,67.244 58.616 C 67.904 59.957,67.947 60.180,67.947 62.292 C 67.947 64.402,67.903 64.629,67.247 65.963 C 65.942 68.615,63.583 70.133,61.089 69.926 C 59.660 69.808,58.933 69.310,58.275 67.997 C 57.350 66.154,57.689 62.584,59.072 59.613 C 59.741 58.175,61.583 56.177,62.341 56.068 C 63.348 55.922,65.262 56.278,65.896 56.729 M100.391 56.270 C 100.518 56.356,101.032 58.299,101.533 60.587 C 102.034 62.875,102.788 66.043,103.210 67.627 C 103.873 70.117,103.978 70.839,103.986 72.960 C 103.998 76.018,103.623 77.351,102.236 79.193 C 99.829 82.389,96.276 83.605,90.499 83.208 C 89.175 83.117,88.025 82.977,87.945 82.896 C 87.865 82.816,88.109 82.509,88.487 82.213 C 89.580 81.357,90.274 79.972,90.401 78.392 C 90.462 77.634,90.553 77.013,90.604 77.013 C 90.655 77.013,91.673 77.263,92.868 77.567 C 97.621 78.780,100.719 77.712,102.212 74.347 C 102.817 72.985,102.945 70.651,102.541 68.373 L 102.239 66.667 102.209 67.947 C 102.193 68.651,102.044 69.864,101.879 70.644 C 101.313 73.313,100.267 74.667,98.770 74.667 C 97.064 74.667,96.106 72.796,95.467 68.216 C 94.442 60.871,94.101 59.412,93.102 58.094 C 92.504 57.306,92.485 57.181,92.882 56.638 C 93.157 56.262,93.212 56.306,93.707 57.291 C 93.999 57.872,94.645 59.594,95.142 61.119 C 96.486 65.241,97.071 66.248,98.418 66.760 C 99.154 67.040,100.272 66.588,100.785 65.806 C 101.930 64.058,101.718 61.705,100.126 58.500 C 99.560 57.360,99.063 56.355,99.024 56.267 C 98.930 56.061,100.087 56.064,100.391 56.270 M72.340 56.932 C 71.671 57.872,71.445 58.640,71.438 59.995 C 71.422 63.322,74.654 65.343,77.734 63.932 C 80.150 62.827,80.427 60.967,78.545 58.492 C 77.394 56.978,75.101 55.907,74.348 56.532 C 73.798 56.988,73.990 57.548,74.979 58.374 C 76.118 59.327,76.292 59.693,75.790 60.074 C 74.571 60.999,72.533 59.723,72.533 58.034 C 72.533 57.545,72.633 56.960,72.754 56.733 C 73.084 56.116,72.836 56.235,72.340 56.932 M87.775 56.621 C 90.489 57.755,92.545 62.461,92.310 67.002 C 92.186 69.409,91.634 70.922,90.526 71.895 C 89.030 73.208,86.864 72.339,85.636 69.933 C 85.067 68.817,84.560 67.051,83.721 63.255 C 83.087 60.387,82.526 58.738,81.922 57.970 C 81.552 57.501,81.544 57.409,81.836 56.993 C 82.013 56.740,82.240 56.533,82.340 56.533 C 82.667 56.533,83.378 58.304,83.927 60.490 C 84.549 62.967,84.898 63.874,85.546 64.698 C 86.567 65.995,88.639 66.358,89.655 65.416 C 90.941 64.224,91.256 62.469,90.560 60.374 C 89.939 58.504,87.720 56.622,86.993 57.349 C 86.829 57.512,86.864 57.732,87.115 58.115 C 87.308 58.410,87.467 58.843,87.467 59.076 C 87.467 59.673,87.019 60.587,86.726 60.587 C 86.424 60.587,85.659 59.889,85.212 59.208 C 84.810 58.594,84.756 57.078,85.121 56.639 C 85.457 56.234,86.826 56.225,87.775 56.621 M63.147 57.173 C 62.531 57.789,62.604 58.065,63.706 59.291 C 64.681 60.375,64.688 60.393,64.293 60.832 C 64.073 61.076,63.681 61.357,63.421 61.456 C 62.824 61.685,61.715 61.314,61.435 60.792 C 61.128 60.216,61.182 58.547,61.536 57.700 C 61.983 56.630,61.538 56.791,60.790 57.970 C 59.608 59.833,59.421 62.001,60.296 63.687 C 61.641 66.279,64.902 65.990,67.001 63.093 C 67.984 61.736,67.783 60.071,66.422 58.287 C 65.326 56.850,63.941 56.379,63.147 57.173 M47.202 58.780 C 47.465 59.583,47.793 60.276,47.932 60.319 C 48.261 60.423,49.697 59.119,50.451 58.030 C 50.777 57.559,51.125 57.173,51.224 57.173 C 51.322 57.173,51.553 57.465,51.738 57.822 C 51.923 58.180,52.330 58.569,52.643 58.688 C 53.158 58.884,53.293 58.817,54.072 57.985 L 54.933 57.067 54.999 57.746 C 55.124 59.034,53.520 61.204,52.097 61.674 C 51.444 61.890,51.235 61.846,50.089 61.255 C 49.123 60.757,48.715 60.646,48.422 60.802 C 47.850 61.109,47.738 62.029,48.103 63.424 C 48.515 64.998,48.946 65.849,49.772 66.720 C 50.585 67.577,51.475 67.629,53.016 66.911 L 54.086 66.413 54.097 68.826 L 54.107 71.239 53.289 71.566 C 52.258 71.979,50.930 71.985,50.150 71.582 C 49.256 71.120,48.709 69.713,48.095 66.298 C 47.384 62.344,46.866 60.772,45.958 59.809 C 45.560 59.387,45.297 58.933,45.375 58.801 C 45.714 58.223,46.573 57.169,46.645 57.241 C 46.689 57.284,46.940 57.977,47.202 58.780 M93.653 73.600 C 93.653 73.717,93.504 73.813,93.321 73.813 C 93.138 73.813,93.047 73.717,93.120 73.600 C 93.193 73.483,93.342 73.387,93.453 73.387 C 93.563 73.387,93.653 73.483,93.653 73.600 " stroke="none" fill="black" fill-rule="evenodd"></path></svg>
